X:1
T:Cancún, 85.85 D
T:John Harrison Tenney, 1879
T:Cancún, 85.85 D
T:Public Domain
C:John Harrison Tenney, 1879
Z:Public Domain
%%score ( 1 2 ) ( 3 4 )
L:1/8
M:2/4
K:A
V:1 treble 
V:2 treble 
V:3 bass 
V:4 bass 
V:1
 [Ec]>[Ec] [Ee][Ee] | [FA][FA] [GB][GB] | [Ac]>[Ac] [Gd][Ac] | [GB]4 | [Ec]>[Ec] [Ee][Ee] | %5
 [FA][FA] [GB][GB] | [Ac]>[Ad] [Ac][GB] | A4 | [Ac]>[Ac] [Ae]>[Ac] | [GB][FA] [EG][DF] | %10
 [CE]>[CE] [CA][^DA] | [EB]4 | [Ec]>[Fd] [=Ge][Ec] | [Fd]>[=Ge] [Af][Ad] | [Ac]>[Ac] [EB]<[EB] | %15
 [EA]6 |] %16
V:2
 x4 | x4 | x4 | x4 | x4 | x4 | x4 | A4 | x4 | x4 | x4 | x4 | x4 | x4 | x4 | x6 |] %16
V:3
 A,>A, [G,B,][G,B,] | [F,C][F,C] [E,E][E,E] | [A,E]>[A,E] [B,E][A,E] | [E,E]4 | %4
 A,>A, [G,B,][G,B,] | [F,C][F,C] [E,E][E,E] | [A,E]>[D,F] [E,E][E,D] | [A,,C]4 | %8
 [A,E]>[A,E] [A,C]>[A,E] | [D,D][D,D] [D,A,][D,A,] | [A,,A,]>[A,,A,] [F,A,][F,B,] | [E,G,]4 | %12
 [A,,A,]>[A,,A,] [A,,A,][A,,A,] | [D,A,]>[D,D] [D,D][D,F] | [E,E]>[E,E] [E,D]<[E,D] | [A,,C]6 |] %16
V:4
 A,>A, x2 | x4 | x4 | x4 | A,>A, x2 | x4 | x4 | x4 | x4 | x4 | x4 | x4 | x4 | x4 | x4 | x6 |] %16

